X: 5
T:Regimental March
M:6/8
L:1/8
C:Trad.
R:Marcha
A:Escocia
N:Repertorio básico
K:D
A |: F2{d} F {G}FED | FGA B2A| D2 F {G} FED | E3{A} E2 A | D2 F {G}
FE
D
| FGA B2A| D2 F E2 F | D3{A} D2 A :|
d2 A B2A | d2 A B2 A| D2 F {G} FED | E3{A} E2 A | d2 A B2A | d2
A B2 A| D2 F E2 F | D3{A} D2 A |
d2 A B2A | d2 A B2 A| D2 F {G} FED | E3{A} E FG| A2 F E2 D | {A}DFA
B2 A| D2
F E2
 F 
| D3{A} D2 
||

